packages/icons/src/gitops-agents-blue-circle.svg

<svg fill="none" viewBox="0 0 32 32" xmlns="http://www.w3.org/2000/svg"><circle cx="16" cy="16" fill="#00ade4" r="16"/><path clip-rule="evenodd" d="m16.8793 8.23124c-.3646-.51138-1.1118-.47808-1.4402.04473l-.0581.09294-2.9545 2.61249c-.3852.3407-.4072.9343-.0482 1.3025l.908.9313-.0028.0382h-.0066v.1885 2.0203c0 .3905.2487.7228.5963.8475l-.5672.5671c-.3964.3468-.8734.3457-1.1896.345l-.0408-.0001c-.5149 0-.9831-.4949-.9388-1.1855.0159-.248-.1723-.4619-.4203-.4778-.2481-.0159-.462.1722-.4779.4203-.0699 1.0905.6907 2.143 1.837 2.143.0162 0 .0345.0002.0548.0004.3179.0031 1.1188.0108 1.7833-.5812.0065-.0058.0127-.0117.0189-.0178l.6865-.6866.4743-.4743h.628v1.3193c0 .2485.2015.45.45.45s.45-.2015.45-.45v-1.3193h.621l1.0656 1.0656c.0062.0061.0124.0121.0189.0178.6645.592 1.4654.5843 1.7833.5813.0203-.0002.0386-.0004.0548-.0004 1.1463 0 1.9069-1.0525 1.837-2.1431-.0159-.248-.2298-.4362-.4779-.4203-.248.0159-.4362.2298-.4203.4779.0443.6906-.4239 1.1855-.9388 1.1855l-.0408.0001c-.3162.0007-.7932.0017-1.1896-.345l-.4821-.4821c.3335-.1318.5694-.457.5694-.8373v-2.0203-.1294l.9863-1.0117c.359-.3682.337-.9618-.0482-1.3025l-2.9998-2.65256c-.028-.03989-.055-.07808-.0809-.1145zm-4.4528 2.75016.5962.6742 1.062-.9391c-.2193.4643-.4263.9582-.5759 1.4377l-.4861-.4986zm6.9373.6912-.5073.5202c-.1199-.483-.2953-.9588-.4931-1.4049zm-3.0809-2.72431-.0992-.08778-.1073.09485c-.3236.52551-.7667 1.28524-1.1453 2.07694-.4401.9204-.7542 1.8066-.7542 2.4096v2.0203h3.2475.0089.6886v-2.0203c0-.818-.3118-1.7456-.7311-2.612-.3613-.7467-.7863-1.41568-1.1079-1.88161zm1.1822 5.34711c0 .233-.1888.4219-.4218.4219s-.4219-.1889-.4219-.4219.1889-.4219.4219-.4219.4218.1889.4218.4219zm-2.1656.4219c.233 0 .4219-.1889.4219-.4219s-.1889-.4219-.4219-.4219-.4219.1889-.4219.4219.1889.4219.4219.4219zm.3687 5.6694c0-.2485.2015-.45.45-.45s.45.2015.45.45-.2015.45-.45.45-.45-.2015-.45-.45zm.45-1.35c-.7456 0-1.35.6044-1.35 1.35s.6044 1.35 1.35 1.35 1.35-.6044 1.35-1.35-.6044-1.35-1.35-1.35zm5.614.9c-.2485 0-.45.2015-.45.45s.2015.45.45.45c.2486 0 .45-.2015.45-.45s-.2014-.45-.45-.45zm-1.35.45c0-.7456.6044-1.35 1.35-1.35s1.35.6044 1.35 1.35-.6044 1.35-1.35 1.35-1.35-.6044-1.35-1.35zm-10.56618 0c0-.2485.20148-.45.44998-.45s.45.2015.45.45-.2015.45-.45.45-.44998-.2015-.44998-.45zm.44998-1.35c-.74557 0-1.34998.6044-1.34998 1.35s.60441 1.35 1.34998 1.35c.7456 0 1.35-.6044 1.35-1.35s-.6044-1.35-1.35-1.35z" fill="#fff" fill-rule="evenodd"/></svg>

<svg viewBox="0 0 32 32" fill="none" xmlns="http://www.w3.org/2000/svg">
<circle cx="16" cy="16" r="16" fill="#00ADE4"/>
<path fill-rule="evenodd" clip-rule="evenodd" d="M16.8793 8.23124C16.5147 7.71986 15.7675 7.75316 15.4391 8.27597L15.381 8.36891L12.4265 10.9814C12.0413 11.3221 12.0193 11.9157 12.3783 12.2839L13.2863 13.2152L13.2835 13.2534H13.2769V13.4419V15.4622C13.2769 15.8527 13.5256 16.185 13.8732 16.3097L13.306 16.8768C12.9096 17.2236 12.4326 17.2225 12.1164 17.2218L12.0756 17.2217C11.5607 17.2217 11.0925 16.7268 11.1368 16.0362C11.1527 15.7882 10.9645 15.5743 10.7165 15.5584C10.4684 15.5425 10.2545 15.7306 10.2386 15.9787C10.1687 17.0692 10.9293 18.1217 12.0756 18.1217C12.0918 18.1217 12.1101 18.1219 12.1304 18.1221C12.4483 18.1252 13.2492 18.1329 13.9137 17.5409C13.9202 17.5351 13.9264 17.5292 13.9326 17.5231L14.6191 16.8365L14.6191 16.8365L15.0934 16.3622H15.7214V17.6815C15.7214 17.93 15.9229 18.1315 16.1714 18.1315C16.4199 18.1315 16.6214 17.93 16.6214 17.6815V16.3622H17.2424L18.308 17.4278C18.3142 17.4339 18.3204 17.4399 18.3269 17.4456C18.9914 18.0376 19.7923 18.0299 20.1102 18.0269C20.1305 18.0267 20.1488 18.0265 20.165 18.0265C21.3113 18.0265 22.0719 16.974 22.002 15.8834C21.9861 15.6354 21.7722 15.4472 21.5241 15.4631C21.2761 15.479 21.0879 15.6929 21.1038 15.941C21.1481 16.6316 20.6799 17.1265 20.165 17.1265L20.1242 17.1266C19.808 17.1273 19.331 17.1283 18.9346 16.7816L18.4525 16.2995C18.786 16.1677 19.0219 15.8425 19.0219 15.4622V13.4419V13.3125L20.0082 12.3008C20.3672 11.9326 20.3452 11.339 19.96 10.9983L16.9602 8.34574C16.9322 8.30585 16.9052 8.26766 16.8793 8.23124ZM12.4265 10.9814L13.0227 11.6556L14.0847 10.7165C13.8654 11.1808 13.6584 11.6747 13.5088 12.1542L13.0227 11.6556L12.4265 10.9814ZM19.3638 11.6726L18.8565 12.1928C18.7366 11.7098 18.5612 11.234 18.3634 10.7879L19.3638 11.6726ZM16.2829 8.94829L16.1837 8.86051L16.0764 8.95536C15.7528 9.48087 15.3097 10.2406 14.9311 11.0323C14.491 11.9527 14.1769 12.8389 14.1769 13.4419V15.4622H17.4244H17.4333H18.1219V13.4419C18.1219 12.6239 17.8101 11.6963 17.3908 10.8299C17.0295 10.0832 16.6045 9.41422 16.2829 8.94829ZM17.4651 14.2954C17.4651 14.5284 17.2763 14.7173 17.0433 14.7173C16.8103 14.7173 16.6214 14.5284 16.6214 14.2954C16.6214 14.0624 16.8103 13.8735 17.0433 13.8735C17.2763 13.8735 17.4651 14.0624 17.4651 14.2954ZM15.2995 14.7173C15.5325 14.7173 15.7214 14.5284 15.7214 14.2954C15.7214 14.0624 15.5325 13.8735 15.2995 13.8735C15.0665 13.8735 14.8776 14.0624 14.8776 14.2954C14.8776 14.5284 15.0665 14.7173 15.2995 14.7173ZM15.6682 20.3867C15.6682 20.1382 15.8697 19.9367 16.1182 19.9367C16.3667 19.9367 16.5682 20.1382 16.5682 20.3867C16.5682 20.6352 16.3667 20.8367 16.1182 20.8367C15.8697 20.8367 15.6682 20.6352 15.6682 20.3867ZM16.1182 19.0367C15.3726 19.0367 14.7682 19.6411 14.7682 20.3867C14.7682 21.1323 15.3726 21.7367 16.1182 21.7367C16.8638 21.7367 17.4682 21.1323 17.4682 20.3867C17.4682 19.6411 16.8638 19.0367 16.1182 19.0367ZM21.7322 19.9367C21.4837 19.9367 21.2822 20.1382 21.2822 20.3867C21.2822 20.6352 21.4837 20.8367 21.7322 20.8367C21.9808 20.8367 22.1822 20.6352 22.1822 20.3867C22.1822 20.1382 21.9808 19.9367 21.7322 19.9367ZM20.3822 20.3867C20.3822 19.6411 20.9866 19.0367 21.7322 19.0367C22.4778 19.0367 23.0822 19.6411 23.0822 20.3867C23.0822 21.1323 22.4778 21.7367 21.7322 21.7367C20.9866 21.7367 20.3822 21.1323 20.3822 20.3867ZM9.81602 20.3867C9.81602 20.1382 10.0175 19.9367 10.266 19.9367C10.5145 19.9367 10.716 20.1382 10.716 20.3867C10.716 20.6352 10.5145 20.8367 10.266 20.8367C10.0175 20.8367 9.81602 20.6352 9.81602 20.3867ZM10.266 19.0367C9.52043 19.0367 8.91602 19.6411 8.91602 20.3867C8.91602 21.1323 9.52043 21.7367 10.266 21.7367C11.0116 21.7367 11.616 21.1323 11.616 20.3867C11.616 19.6411 11.0116 19.0367 10.266 19.0367Z" fill="white"/>
</svg>
